X:57
T:Ballydesmond Polka \#2, The
T:Maurice Manley's
Z:Boston
M:2/4
R:polka
E:13
K:G
E2A2 A2B2|c2d2 e2g2|G3F G2A2|G2E2 E2D2|E2A2 A2B2|c2d2 e3f|g2e2 dedB|A4 A4:|
a3g a2b2|a2g2 e2f2|g3f g2a2|g2e2 d2e2|a3g a2b2|a2g2 e3f|g2e2 dedB| A4 A4:|
<end>
<start>
